X:268
T: Alter Sommerwendfest - Tanz
N: A0310B
O: Europa, Mitteleuropa, Deutschland
N: Souterliedekens 1540 ad Ps. 125
R: Romanze, Ballade, Lied
M: 4/2
L: 1/4
K: G
 |  |  |  | G3GG2G2 | _B3BB2
B2 | G3GA2G2 | F4G4 | z2
G2A3_B | c2c2_B3A | _B2
B2=F2F2 | _B2B2A2A2 | _B3
BA2G2 | A2G2F4 | G8

@@@ Tune index: 268
